symbols/web/door_sliding/materialsymbolsoutlined/door_sliding_wght500gradN25fill1_20px.svg

<svg xmlns="http://www.w3.org/2000/svg" height="20" width="20"><path d="M7.604 10.812q.354 0 .594-.239.24-.24.24-.594t-.24-.594q-.24-.239-.594-.239-.333 0-.583.239-.25.24-.25.594t.239.594q.24.239.594.239Zm4.834 0q.333 0 .583-.239.25-.24.25-.594t-.24-.594q-.239-.239-.593-.239-.355 0-.594.239-.24.24-.24.594t.24.594q.239.239.594.239Zm-10 6.667v-1.875h.937V4.396q0-.792.542-1.333.541-.542 1.333-.542h4.354v13.083h.834V2.521h4.333q.791 0 1.333.542.542.541.542 1.333v11.208h.937v1.875Z"/></svg>

<svg xmlns="http://www.w3.org/2000/svg" height="20" width="20"><path d="M7.604 10.812Q7.958 10.812 8.198 10.573Q8.438 10.333 8.438 9.979Q8.438 9.625 8.198 9.385Q7.958 9.146 7.604 9.146Q7.271 9.146 7.021 9.385Q6.771 9.625 6.771 9.979Q6.771 10.333 7.01 10.573Q7.25 10.812 7.604 10.812ZM12.438 10.812Q12.771 10.812 13.021 10.573Q13.271 10.333 13.271 9.979Q13.271 9.625 13.031 9.385Q12.792 9.146 12.438 9.146Q12.083 9.146 11.844 9.385Q11.604 9.625 11.604 9.979Q11.604 10.333 11.844 10.573Q12.083 10.812 12.438 10.812ZM2.438 17.479V15.604H3.375V4.396Q3.375 3.604 3.917 3.063Q4.458 2.521 5.25 2.521H9.604V15.604H10.438V2.521H14.771Q15.562 2.521 16.104 3.063Q16.646 3.604 16.646 4.396V15.604H17.583V17.479Z"/></svg>
